learning-site/svg (33).svg

<svg xmlns="http://www.w3.org/2000/svg" xmlns:xlink="http://www.w3.org/1999/xlink" viewBox="0 0 100 118" version="1.1"><!-- Generator: Sketch 51.3 (57544) - http://www.bohemiancoding.com/sketch --><title>Automate a process using Flow/automate-a-process-using-flow</title><desc>Created with Sketch.</desc><defs><filter x="-1.6%" y="-1.6%" width="103.2%" height="106.2%" filterUnits="objectBoundingBox" id="filter-1"><feOffset dx="0" dy="2" in="SourceAlpha" result="shadowOffsetOuter1"></feOffset><feColorMatrix values="0 0 0 0 0   0 0 0 0 0   0 0 0 0 0  0 0 0 0.0997509058 0" type="matrix" in="shadowOffsetOuter1" result="shadowMatrixOuter1"></feColorMatrix><feMerge><feMergeNode in="shadowMatrixOuter1"></feMergeNode><feMergeNode in="SourceGraphic"></feMergeNode></feMerge></filter><circle id="path-2" cx="12.7982322" cy="16.3998417" r="3.02272727"></circle><filter x="-4.1%" y="-12.4%" width="108.3%" height="116.5%" filterUnits="objectBoundingBox" id="filter-3"><feOffset dx="0" dy="-0.5" in="SourceAlpha" result="shadowOffsetOuter1"></feOffset><feColorMatrix values="0 0 0 0 1   0 0 0 0 1   0 0 0 0 1  0 0 0 1 0" type="matrix" in="shadowOffsetOuter1"></feColorMatrix></filter><circle id="path-4" cx="19.8436867" cy="10.3543872" r="3.02272727"></circle><filter x="-4.1%" y="-12.4%" width="108.3%" height="116.5%" filterUnits="objectBoundingBox" id="filter-5"><feOffset dx="0" dy="-0.5" in="SourceAlpha" result="shadowOffsetOuter1"></feOffset><feColorMatrix values="0 0 0 0 1   0 0 0 0 1   0 0 0 0 1  0 0 0 1 0" type="matrix" in="shadowOffsetOuter1"></feColorMatrix></filter><circle id="path-6" cx="28.1478485" cy="3.12386392" r="3.02272727"></circle><filter x="-4.1%" y="-12.4%" width="108.3%" height="116.5%" filterUnits="objectBoundingBox" id="filter-7"><feOffset dx="0" dy="-0.5" in="SourceAlpha" result="shadowOffsetOuter1"></feOffset><feColorMatrix values="0 0 0 0 1   0 0 0 0 1   0 0 0 0 1  0 0 0 1 0" type="matrix" in="shadowOffsetOuter1"></feColorMatrix></filter><circle id="path-8" cx="25.6643964" cy="12.6700077" r="3.02272727"></circle><filter x="-4.1%" y="-12.4%" width="108.3%" height="116.5%" filterUnits="objectBoundingBox" id="filter-9"><feOffset dx="0" dy="-0.5" in="SourceAlpha" result="shadowOffsetOuter1"></feOffset><feColorMatrix values="0 0 0 0 1   0 0 0 0 1   0 0 0 0 1  0 0 0 1 0" type="matrix" in="shadowOffsetOuter1"></feColorMatrix></filter><rect id="path-10" x="-0.179040567" y="16.242363" width="30" height="1"></rect><filter x="-0.8%" y="-75.0%" width="101.7%" height="200.0%" filterUnits="objectBoundingBox" id="filter-11"><feOffset dx="0" dy="-0.5" in="SourceAlpha" result="shadowOffsetOuter1"></feOffset><feColorMatrix values="0 0 0 0 1   0 0 0 0 1   0 0 0 0 1  0 0 0 1 0" type="matrix" in="shadowOffsetOuter1"></feColorMatrix></filter><circle id="path-12" cx="12.7982322" cy="15.3998417" r="3.02272727"></circle><filter x="-4.1%" y="-12.4%" width="108.3%" height="116.5%" filterUnits="objectBoundingBox" id="filter-13"><feOffset dx="0" dy="-0.5" in="SourceAlpha" result="shadowOffsetOuter1"></feOffset><feColorMatrix values="0 0 0 0 1   0 0 0 0 1   0 0 0 0 1  0 0 0 1 0" type="matrix" in="shadowOffsetOuter1"></feColorMatrix></filter><circle id="path-14" cx="19.8436867" cy="9.35438717" r="3.02272727"></circle><filter x="-4.1%" y="-12.4%" width="108.3%" height="116.5%" filterUnits="objectBoundingBox" id="filter-15"><feOffset dx="0" dy="-0.5" in="SourceAlpha" result="shadowOffsetOuter1"></feOffset><feColorMatrix values="0 0 0 0 1   0 0 0 0 1   0 0 0 0 1  0 0 0 1 0" type="matrix" in="shadowOffsetOuter1"></feColorMatrix></filter><circle id="path-16" cx="26.8891413" cy="3.30893263" r="3.02272727"></circle><filter x="-4.1%" y="-12.4%" width="108.3%" height="116.5%" filterUnits="objectBoundingBox" id="filter-17"><feOffset dx="0" dy="-0.5" in="SourceAlpha" result="shadowOffsetOuter1"></feOffset><feColorMatrix values="0 0 0 0 1   0 0 0 0 1   0 0 0 0 1  0 0 0 1 0" type="matrix" in="shadowOffsetOuter1"></feColorMatrix></filter><rect id="path-18" x="-0.179040567" y="15.242363" width="30" height="1"></rect><filter x="-0.8%" y="-75.0%" width="101.7%" height="200.0%" filterUnits="objectBoundingBox" id="filter-19"><feOffset dx="0" dy="-0.5" in="SourceAlpha" result="shadowOffsetOuter1"></feOffset><feColorMatrix values="0 0 0 0 1   0 0 0 0 1   0 0 0 0 1  0 0 0 1 0" type="matrix" in="shadowOffsetOuter1"></feColorMatrix></filter><rect id="path-20" x="5.9995" y="31.5" width="30" height="1"></rect><filter x="-0.8%" y="-25.0%" width="101.7%" height="200.0%" filterUnits="objectBoundingBox" id="filter-21"><feOffset dx="0" dy="0.5" in="SourceAlpha" result="shadowOffsetOuter1"></feOffset><feColorMatrix values="0 0 0 0 1   0 0 0 0 1   0 0 0 0 1  0 0 0 1 0" type="matrix" in="shadowOffsetOuter1"></feColorMatrix></filter><path d="M1.53407924,11.2754325 L1.53407924,3.15084497 C1.5356148,2.07433445 2.40847152,1.20203274 3.48566698,1.20049815 L22.7024337,1.20049815 C23.77972,1.20181403 24.6527047,2.07424369 24.6540214,3.15084497 L24.6540214,13.5051964 C24.6527047,14.5817977 23.77972,15.4542273 22.7024337,15.4555432 L13.8306751,15.4555432 L13.8306751,16.4693255 L22.7032303,16.4693255 C24.3408072,16.4675705 25.6678875,15.141334 25.6696436,13.5047984 L25.6696436,3.15084497 C25.6678875,1.51430932 24.3408072,0.188072812 22.7032303,0.186317812 L3.48606526,0.186317812 C1.84848836,0.188072812 0.521408013,1.51430932 0.519651897,3.15084497 L0.519651897,11.2746365 L1.53407924,11.2754325 Z" id="path-22"></path><filter x="-1.0%" y="-1.5%" width="102.0%" height="106.1%" filterUnits="objectBoundingBox" id="filter-23"><feOffset dx="0" dy="0.5" in="SourceAlpha" result="shadowOffsetOuter1"></feOffset><feColorMatrix values="0 0 0 0 1   0 0 0 0 1   0 0 0 0 1  0 0 0 1 0" type="matrix" in="shadowOffsetOuter1"></feColorMatrix></filter><path d="M13.858555,9.24070338 C13.8580263,9.47554696 13.9508974,9.70097604 14.1167265,9.86737153 C14.2825556,10.033767 14.5077505,10.1274904 14.7427437,10.1279122 L18.8677629,10.1279122 C19.1026871,10.1273849 19.3277797,10.0336151 19.4935227,9.86723103 C19.6592657,9.70084698 19.7520821,9.47547813 19.7515534,9.24070338 L19.7515534,5.10119178 C19.7520821,4.86641702 19.6592657,4.64104817 19.4935227,4.47466412 C19.3277797,4.30828007 19.1026871,4.21451022 18.8677629,4.21398299 L14.7427437,4.21398299 C14.5077505,4.21440478 14.2825556,4.30812812 14.1167265,4.47452362 C13.9508974,4.64091911 13.8580263,4.86634819 13.858555,5.10119178 L13.858555,6.43419412 L12.1929346,6.43419412 C11.4950212,6.43464467 10.8763509,6.88306 10.6591459,7.5458918 L8.12407327,15.2035902 C8.10480692,15.2634963 8.04923015,15.3042695 7.98626728,15.3046898 L6.41225202,15.3046898 L6.41225202,13.9732796 C6.41278077,13.7385049 6.31996431,13.513136 6.15422132,13.346752 C5.98847834,13.1803679 5.76338572,13.0865981 5.52846158,13.0860708 L1.40423891,13.0860708 C1.16931477,13.0865981 0.944222152,13.1803679 0.778479164,13.346752 C0.612736175,13.513136 0.519919713,13.7385049 0.520448463,13.9732796 L0.520448463,18.1127912 C0.519919713,18.347566 0.612736175,18.5729348 0.778479164,18.7393189 C0.944222152,18.9057029 1.16931477,18.9994728 1.40423891,19 L5.52925814,19 C5.76418228,18.9994728 5.9892749,18.9057029 6.15501789,18.7393189 C6.32076088,18.5729348 6.41357734,18.347566 6.41304859,18.1127912 L6.41304859,16.7821771 L7.98706385,16.7821771 C8.6849772,16.7817265 9.3036475,16.3333112 9.5208525,15.6704794 L12.0559251,8.01278094 C12.0751915,7.95287485 12.1307683,7.91210167 12.1937311,7.91168133 L13.8593515,7.91168133 L13.858555,9.24070338 Z M4.9394007,17.5197266 L1.99210493,17.5197266 L1.99210493,14.562762 L4.9394007,14.562762 L4.9394007,17.5197266 Z" id="path-24"></path><filter x="-1.3%" y="-1.7%" width="102.6%" height="106.8%" filterUnits="objectBoundingBox" id="filter-25"><feOffset dx="0" dy="0.5" in="SourceAlpha" result="shadowOffsetOuter1"></feOffset><feColorMatrix values="0 0 0 0 1   0 0 0 0 1   0 0 0 0 1  0 0 0 1 0" type="matrix" in="shadowOffsetOuter1"></feColorMatrix></filter><circle id="path-26" cx="3.79823216" cy="15.3998417" r="3.02272727"></circle><filter x="-4.1%" y="-4.1%" width="108.3%" height="116.5%" filterUnits="objectBoundingBox" id="filter-27"><feOffset dx="0" dy="0.5" in="SourceAlpha" result="shadowOffsetOuter1"></feOffset><feColorMatrix values="0 0 0 0 1   0 0 0 0 1   0 0 0 0 1  0 0 0 1 0" type="matrix" in="shadowOffsetOuter1"></feColorMatrix></filter><circle id="path-28" cx="10.8436867" cy="9.35438717" r="3.02272727"></circle><filter x="-4.1%" y="-4.1%" width="108.3%" height="116.5%" filterUnits="objectBoundingBox" id="filter-29"><feOffset dx="0" dy="0.5" in="SourceAlpha" result="shadowOffsetOuter1"></feOffset><feColorMatrix values="0 0 0 0 1   0 0 0 0 1   0 0 0 0 1  0 0 0 1 0" type="matrix" in="shadowOffsetOuter1"></feColorMatrix></filter><circle id="path-30" cx="17.8891413" cy="3.30893263" r="3.02272727"></circle><filter x="-4.1%" y="-4.1%" width="108.3%" height="116.5%" filterUnits="objectBoundingBox" id="filter-31"><feOffset dx="0" dy="0.5" in="SourceAlpha" result="shadowOffsetOuter1"></feOffset><feColorMatrix values="0 0 0 0 1   0 0 0 0 1   0 0 0 0 1  0 0 0 1 0" type="matrix" in="shadowOffsetOuter1"></feColorMatrix></filter></defs><g id="Badges-FINAL" stroke="none" stroke-width="1" fill="none" fill-rule="evenodd"><g id="Automate-a-process-using-Flow" transform="translate(-576.000000, -118.000000)"><g id="Automate-a-process-using-Flow/automate-a-process-using-flow" transform="translate(576.000000, 118.000000)"><path d="M44.7425,3.49663266 C46.3745,2.49887755 48.1865,2 50,2 C51.8135,2 53.627,2.49887755 55.256,3.49663266 L92.591,26.3316189 C95.933,28.3773408 98,32.2031485 98,36.3529027 L98,81.6470973 C98,85.7952317 95.933,89.6242789 92.591,91.6683811 L55.256,114.504987 C53.627,115.501122 51.8135,116 50,116 C48.1865,116 46.3745,115.501122 44.7425,114.504987 L7.409,91.6683811 C4.0655,89.6242789 2,85.7952317 2,81.6470973 L2,36.3529027 C2,32.2031485 4.0655,28.3773408 7.409,26.3316189 L44.7425,3.49663266 Z" id="Trophy-1" fill="#B7D2F7"></path><g id="Dominoes" filter="url(#filter-1)" transform="translate(24.178471, 27.000000)"><g id="Group-4" transform="translate(38.500000, 32.000000) scale(1, -1) translate(-38.500000, -32.000000) translate(15.000000, 6.000000)"><path d="M44.001,10.603 L36.012,6 L26.999,52 L46.199,18.799 C47.852,15.941 46.862,12.253 44.001,10.603" id="Fill-238" fill="#AAB0B1"></path><polyline id="Fill-239" fill="#9CA2A2" points="36.012 6 26.999 52 42.391 9.676 36.012 6"></polyline><g id="Group-2-Copy-2" opacity="0.5" transform="translate(24.591977, 19.531262) rotate(-345.000000) translate(-24.591977, -19.531262) translate(8.591977, 8.531262)" fill-rule="nonzero"><g id="Oval"><use fill="black" fill-opacity="1" filter="url(#filter-3)" xlink:href="#path-2"></use><use fill="#1E1E1E" xlink:href="#path-2"></use></g><g id="Oval-Copy"><use fill="black" fill-opacity="1" filter="url(#filter-5)" xlink:href="#path-4"></use><use fill="#1E1E1E" xlink:href="#path-4"></use></g><g id="Oval-Copy-2"><use fill="black" fill-opacity="1" filter="url(#filter-7)" xlink:href="#path-6"></use><use fill="#1E1E1E" xlink:href="#path-6"></use></g><g id="Oval-Copy-3"><use fill="black" fill-opacity="1" filter="url(#filter-9)" xlink:href="#path-8"></use><use fill="#1E1E1E" xlink:href="#path-8"></use></g><g id="Rectangle" transform="translate(14.820959, 16.742363) rotate(-345.000000) translate(-14.820959, -16.742363) "><use fill="black" fill-opacity="1" filter="url(#filter-11)" xlink:href="#path-10"></use><use fill="#1E1E1E" xlink:href="#path-10"></use></g></g><path d="M34.583,2.024 L27.029,0 L27.029,52 L38.826,9.373 C39.679,6.185 37.77,2.878 34.583,2.024" id="Fill-240" fill="#C5CCCD"></path><polyline id="Fill-242" fill="#AAB0B1" points="30.927 1.045 27.029 0 27.029 52 30.927 1.045"></polyline><g id="Group-2-Copy" opacity="0.699999988" transform="translate(0.499500, 7.000000)" fill-rule="nonzero"><g id="Oval"><use fill="black" fill-opacity="1" filter="url(#filter-13)" xlink:href="#path-12"></use><use fill="#1E1E1E" xlink:href="#path-12"></use></g><g id="Oval-Copy"><use fill="black" fill-opacity="1" filter="url(#filter-15)" xlink:href="#path-14"></use><use fill="#1E1E1E" xlink:href="#path-14"></use></g><g id="Oval-Copy-2"><use fill="black" fill-opacity="1" filter="url(#filter-17)" xlink:href="#path-16"></use><use fill="#1E1E1E" xlink:href="#path-16"></use></g><g id="Rectangle" transform="translate(14.820959, 15.742363) rotate(-345.000000) translate(-14.820959, -15.742363) "><use fill="black" fill-opacity="1" filter="url(#filter-19)" xlink:href="#path-18"></use><use fill="#1E1E1E" xlink:href="#path-18"></use></g></g></g><path d="M35.999,0 L6,0 C2.7,0 0,2.7 0,6 L0,58 C0,61.3 2.7,64 6,64 L35.999,64 C39.299,64 41.999,61.302 41.999,58 L41.999,6 C41.999,2.7 39.299,0 35.999,0" id="Fill-241" fill="#E1E4E1"></path><g id="Flow" transform="translate(8.186687, 15.608009)"></g><g id="Rectangle" fill-rule="nonzero"><use fill="black" fill-opacity="1" filter="url(#filter-21)" xlink:href="#path-20"></use><use fill="#1E1E1E" xlink:href="#path-20"></use></g><g id="Group-3" transform="translate(8.000000, 8.000000)" fill-rule="nonzero"><g id="Shape"><use fill="black" fill-opacity="1" filter="url(#filter-23)" xlink:href="#path-22"></use><use fill="#1E1E1E" xlink:href="#path-22"></use></g><g id="Shape"><use fill="black" fill-opacity="1" filter="url(#filter-25)" xlink:href="#path-24"></use><use fill="#1E1E1E" xlink:href="#path-24"></use></g></g><g id="Group-2" transform="translate(10.499500, 37.000000)" fill-rule="nonzero"><g id="Oval"><use fill="black" fill-opacity="1" filter="url(#filter-27)" xlink:href="#path-26"></use><use fill="#1E1E1E" xlink:href="#path-26"></use></g><g id="Oval-Copy"><use fill="black" fill-opacity="1" filter="url(#filter-29)" xlink:href="#path-28"></use><use fill="#1E1E1E" xlink:href="#path-28"></use></g><g id="Oval-Copy-2"><use fill="black" fill-opacity="1" filter="url(#filter-31)" xlink:href="#path-30"></use><use fill="#1E1E1E" xlink:href="#path-30"></use></g></g></g><g id="Flow-Hex-Border" stroke="#0066FF" stroke-width="4"><path d="M45.5620172,3.25834249 L6.67338401,26.8942953 C3.79673288,28.6432593 2,31.9508238 2,35.5582677 L2,82.4417323 C2,86.0486597 3.79764663,89.3586805 6.67318764,91.1055853 L45.560618,114.742485 C46.9289662,115.572418 48.4546283,116 50,116 C51.5458817,116 53.0723633,115.572188 54.4362178,114.743457 L93.3268764,91.1055464 C96.2016145,89.3583456 98,86.0476286 98,82.4417323 L98,35.5582677 C98,31.9518547 96.202529,28.6435953 93.3268966,26.8944659 L54.4351916,3.25759524 C53.0721095,2.42798656 51.5462432,2 50,2 C48.4543284,2 46.9293388,2.42772325 45.5620146,3.25834407 Z M45.5620146,3.25834407 C45.5619597,3.25837737 45.5619049,3.25841067 45.5618501,3.25844398 L45.5621963,3.25823359 L45.5620172,3.25834249 Z" id="Azure-Hex-Border"></path></g></g></g></g></svg>

<svg xmlns="http://www.w3.org/2000/svg" xmlns:xlink="http://www.w3.org/1999/xlink" viewBox="0 0 100 118"><defs><filter x="-1.6%" y="-1.6%" width="103.2%" height="106.2%" filterUnits="objectBoundingBox" id="a"><feOffset dy="2" in="SourceAlpha" result="shadowOffsetOuter1"/><feColorMatrix values="0 0 0 0 0 0 0 0 0 0 0 0 0 0 0 0 0 0 0.0997509058 0" in="shadowOffsetOuter1" result="shadowMatrixOuter1"/><feMerge><feMergeNode in="shadowMatrixOuter1"/><feMergeNode in="SourceGraphic"/></feMerge></filter><circle id="c" cx="12.798" cy="16.4" r="3.023"/><filter x="-4.1%" y="-12.4%" width="108.3%" height="116.5%" filterUnits="objectBoundingBox" id="b"><feOffset dy="-.5" in="SourceAlpha" result="shadowOffsetOuter1"/><feColorMatrix values="0 0 0 0 1 0 0 0 0 1 0 0 0 0 1 0 0 0 1 0" in="shadowOffsetOuter1"/></filter><circle id="e" cx="19.844" cy="10.354" r="3.023"/><filter x="-4.1%" y="-12.4%" width="108.3%" height="116.5%" filterUnits="objectBoundingBox" id="d"><feOffset dy="-.5" in="SourceAlpha" result="shadowOffsetOuter1"/><feColorMatrix values="0 0 0 0 1 0 0 0 0 1 0 0 0 0 1 0 0 0 1 0" in="shadowOffsetOuter1"/></filter><circle id="g" cx="28.148" cy="3.124" r="3.023"/><filter x="-4.1%" y="-12.4%" width="108.3%" height="116.5%" filterUnits="objectBoundingBox" id="f"><feOffset dy="-.5" in="SourceAlpha" result="shadowOffsetOuter1"/><feColorMatrix values="0 0 0 0 1 0 0 0 0 1 0 0 0 0 1 0 0 0 1 0" in="shadowOffsetOuter1"/></filter><circle id="i" cx="25.664" cy="12.67" r="3.023"/><filter x="-4.1%" y="-12.4%" width="108.3%" height="116.5%" filterUnits="objectBoundingBox" id="h"><feOffset dy="-.5" in="SourceAlpha" result="shadowOffsetOuter1"/><feColorMatrix values="0 0 0 0 1 0 0 0 0 1 0 0 0 0 1 0 0 0 1 0" in="shadowOffsetOuter1"/></filter><path id="k" d="M-.179 16.242h30v1h-30z"/><filter x="-.8%" y="-75%" width="101.7%" height="200%" filterUnits="objectBoundingBox" id="j"><feOffset dy="-.5" in="SourceAlpha" result="shadowOffsetOuter1"/><feColorMatrix values="0 0 0 0 1 0 0 0 0 1 0 0 0 0 1 0 0 0 1 0" in="shadowOffsetOuter1"/></filter><circle id="m" cx="12.798" cy="15.4" r="3.023"/><filter x="-4.1%" y="-12.4%" width="108.3%" height="116.5%" filterUnits="objectBoundingBox" id="l"><feOffset dy="-.5" in="SourceAlpha" result="shadowOffsetOuter1"/><feColorMatrix values="0 0 0 0 1 0 0 0 0 1 0 0 0 0 1 0 0 0 1 0" in="shadowOffsetOuter1"/></filter><circle id="o" cx="19.844" cy="9.354" r="3.023"/><filter x="-4.1%" y="-12.4%" width="108.3%" height="116.5%" filterUnits="objectBoundingBox" id="n"><feOffset dy="-.5" in="SourceAlpha" result="shadowOffsetOuter1"/><feColorMatrix values="0 0 0 0 1 0 0 0 0 1 0 0 0 0 1 0 0 0 1 0" in="shadowOffsetOuter1"/></filter><circle id="q" cx="26.889" cy="3.309" r="3.023"/><filter x="-4.1%" y="-12.4%" width="108.3%" height="116.5%" filterUnits="objectBoundingBox" id="p"><feOffset dy="-.5" in="SourceAlpha" result="shadowOffsetOuter1"/><feColorMatrix values="0 0 0 0 1 0 0 0 0 1 0 0 0 0 1 0 0 0 1 0" in="shadowOffsetOuter1"/></filter><path id="s" d="M-.179 15.242h30v1h-30z"/><filter x="-.8%" y="-75%" width="101.7%" height="200%" filterUnits="objectBoundingBox" id="r"><feOffset dy="-.5" in="SourceAlpha" result="shadowOffsetOuter1"/><feColorMatrix values="0 0 0 0 1 0 0 0 0 1 0 0 0 0 1 0 0 0 1 0" in="shadowOffsetOuter1"/></filter><path id="u" d="M6 31.5h30v1H6z"/><filter x="-.8%" y="-25%" width="101.7%" height="200%" filterUnits="objectBoundingBox" id="t"><feOffset dy=".5" in="SourceAlpha" result="shadowOffsetOuter1"/><feColorMatrix values="0 0 0 0 1 0 0 0 0 1 0 0 0 0 1 0 0 0 1 0" in="shadowOffsetOuter1"/></filter><path d="M1.534 11.275V3.151A1.954 1.954 0 0 1 3.486 1.2h19.216a1.953 1.953 0 0 1 1.952 1.95v10.354a1.953 1.953 0 0 1-1.952 1.95h-8.871v1.014h8.872a2.969 2.969 0 0 0 2.967-2.964V3.15A2.969 2.969 0 0 0 22.703.186H3.486A2.969 2.969 0 0 0 .52 3.151v8.124h1.014z" id="w"/><filter x="-1%" y="-1.5%" width="102%" height="106.1%" filterUnits="objectBoundingBox" id="v"><feOffset dy=".5" in="SourceAlpha" result="shadowOffsetOuter1"/><feColorMatrix values="0 0 0 0 1 0 0 0 0 1 0 0 0 0 1 0 0 0 1 0" in="shadowOffsetOuter1"/></filter><path d="M13.859 9.24a.885.885 0 0 0 .884.888h4.125a.886.886 0 0 0 .884-.887V5.1a.885.885 0 0 0-.884-.887h-4.125a.886.886 0 0 0-.884.887v1.333h-1.666c-.698 0-1.317.45-1.534 1.112l-2.535 7.658c-.02.06-.075.1-.138.1H6.412v-1.33a.885.885 0 0 0-.884-.888H1.404a.886.886 0 0 0-.884.887v4.14a.885.885 0 0 0 .884.887H5.53a.886.886 0 0 0 .884-.887v-1.33h1.574c.698-.001 1.317-.45 1.534-1.113l2.535-7.657c.02-.06.075-.1.138-.101h1.665V9.24zm-8.92 8.28H1.992v-2.957H4.94v2.957z" id="y"/><filter x="-1.3%" y="-1.7%" width="102.6%" height="106.8%" filterUnits="objectBoundingBox" id="x"><feOffset dy=".5" in="SourceAlpha" result="shadowOffsetOuter1"/><feColorMatrix values="0 0 0 0 1 0 0 0 0 1 0 0 0 0 1 0 0 0 1 0" in="shadowOffsetOuter1"/></filter><circle id="A" cx="3.798" cy="15.4" r="3.023"/><filter x="-4.1%" y="-4.1%" width="108.3%" height="116.5%" filterUnits="objectBoundingBox" id="z"><feOffset dy=".5" in="SourceAlpha" result="shadowOffsetOuter1"/><feColorMatrix values="0 0 0 0 1 0 0 0 0 1 0 0 0 0 1 0 0 0 1 0" in="shadowOffsetOuter1"/></filter><circle id="C" cx="10.844" cy="9.354" r="3.023"/><filter x="-4.1%" y="-4.1%" width="108.3%" height="116.5%" filterUnits="objectBoundingBox" id="B"><feOffset dy=".5" in="SourceAlpha" result="shadowOffsetOuter1"/><feColorMatrix values="0 0 0 0 1 0 0 0 0 1 0 0 0 0 1 0 0 0 1 0" in="shadowOffsetOuter1"/></filter><circle id="E" cx="17.889" cy="3.309" r="3.023"/><filter x="-4.1%" y="-4.1%" width="108.3%" height="116.5%" filterUnits="objectBoundingBox" id="D"><feOffset dy=".5" in="SourceAlpha" result="shadowOffsetOuter1"/><feColorMatrix values="0 0 0 0 1 0 0 0 0 1 0 0 0 0 1 0 0 0 1 0" in="shadowOffsetOuter1"/></filter></defs><g fill="none" fill-rule="evenodd"><path d="M44.742 3.497A10.056 10.056 0 0 1 50 2c1.813 0 3.627.499 5.256 1.497l37.335 22.835C95.933 28.377 98 32.203 98 36.352v45.295c0 4.148-2.067 7.977-5.409 10.021l-37.335 22.837A10.056 10.056 0 0 1 50 116c-1.813 0-3.626-.499-5.258-1.495L7.41 91.668C4.066 89.624 2 85.795 2 81.648V36.352c0-4.15 2.066-7.976 5.409-10.021L44.743 3.497z" fill="#B7D2F7"/><g filter="url(#a)" transform="translate(24.178 27)"><path d="M59.001 47.397L51.012 52 41.999 6l19.2 33.201c1.653 2.858.663 6.546-2.198 8.196" fill="#AAB0B1"/><path fill="#9CA2A2" d="M51.012 52L41.999 6l15.392 42.324L51.012 52"/><g opacity=".5" fill-rule="nonzero"><g transform="scale(1 -1) rotate(15 215.672 75.865)"><use fill="#000" filter="url(#b)" xlink:href="#c"/><use fill="#1E1E1E" xlink:href="#c"/></g><g transform="scale(1 -1) rotate(15 215.672 75.865)"><use fill="#000" filter="url(#d)" xlink:href="#e"/><use fill="#1E1E1E" xlink:href="#e"/></g><g transform="scale(1 -1) rotate(15 215.672 75.865)"><use fill="#000" filter="url(#f)" xlink:href="#g"/><use fill="#1E1E1E" xlink:href="#g"/></g><g transform="scale(1 -1) rotate(15 215.672 75.865)"><use fill="#000" filter="url(#h)" xlink:href="#i"/><use fill="#1E1E1E" xlink:href="#i"/></g><g transform="scale(1 -1) rotate(30 119.138 33.082)"><use fill="#000" filter="url(#j)" xlink:href="#k"/><use fill="#1E1E1E" xlink:href="#k"/></g></g><path d="M49.583 55.976L42.029 58V6l11.797 42.627c.853 3.188-1.056 6.495-4.243 7.349" fill="#C5CCCD"/><path fill="#AAB0B1" d="M45.927 56.955L42.029 58V6l3.898 50.955"/><g opacity=".7" fill-rule="nonzero"><g transform="matrix(1 0 0 -1 15.5 51)"><use fill="#000" filter="url(#l)" xlink:href="#m"/><use fill="#1E1E1E" xlink:href="#m"/></g><g transform="matrix(1 0 0 -1 15.5 51)"><use fill="#000" filter="url(#n)" xlink:href="#o"/><use fill="#1E1E1E" xlink:href="#o"/></g><g transform="matrix(1 0 0 -1 15.5 51)"><use fill="#000" filter="url(#p)" xlink:href="#q"/><use fill="#1E1E1E" xlink:href="#q"/></g><g transform="scale(1 -1) rotate(15 216.262 49.108)"><use fill="#000" filter="url(#r)" xlink:href="#s"/><use fill="#1E1E1E" xlink:href="#s"/></g></g><path d="M35.999 0H6C2.7 0 0 2.7 0 6v52c0 3.3 2.7 6 6 6h29.999c3.3 0 6-2.698 6-6V6c0-3.3-2.7-6-6-6" fill="#E1E4E1"/><g fill-rule="nonzero"><use fill="#000" filter="url(#t)" xlink:href="#u"/><use fill="#1E1E1E" xlink:href="#u"/></g><g fill-rule="nonzero"><g transform="translate(8 8)"><use fill="#000" filter="url(#v)" xlink:href="#w"/><use fill="#1E1E1E" xlink:href="#w"/></g><g transform="translate(8 8)"><use fill="#000" filter="url(#x)" xlink:href="#y"/><use fill="#1E1E1E" xlink:href="#y"/></g></g><g fill-rule="nonzero"><g transform="translate(10.5 37)"><use fill="#000" filter="url(#z)" xlink:href="#A"/><use fill="#1E1E1E" xlink:href="#A"/></g><g transform="translate(10.5 37)"><use fill="#000" filter="url(#B)" xlink:href="#C"/><use fill="#1E1E1E" xlink:href="#C"/></g><g transform="translate(10.5 37)"><use fill="#000" filter="url(#D)" xlink:href="#E"/><use fill="#1E1E1E" xlink:href="#E"/></g></g></g><path d="M45.562 3.258L6.673 26.894C3.797 28.644 2 31.951 2 35.558v46.884c0 3.607 1.798 6.917 4.673 8.664l38.888 23.636A8.539 8.539 0 0 0 50 116a8.525 8.525 0 0 0 4.436-1.257l38.89-23.637C96.203 89.358 98 86.048 98 82.442V35.558c0-3.606-1.797-6.914-4.673-8.664L54.435 3.258A8.511 8.511 0 0 0 50 2c-1.546 0-3.07.428-4.438 1.258zm0 0s0 0 0 0h0z" stroke="#06F" stroke-width="4"/></g></svg>
